X: 20912
Q: "With spirit."
M: 6/8
L: 1/8
K: C
cde cde | d^cd dgg | ecc ccc | ABc BGG |\
cde cde | d^cd dgg | GGG Bcd | ABc BG |]\
e/=f/ |
gee gee | fdd f2d | ecc gcc | Add d2e/f/ |\
ecc ecc | Aff fd d/e/ | fdd fdd | gee afa |\
gec cfe | d2c c2 |]


